images/posts/add-a-service.svg

<svg id="Layer_1" data-name="Layer 1" xmlns="http://www.w3.org/2000/svg" viewBox="0 0 380 200"><defs><style>.cls-1{fill:#fafafa;}.cls-2{opacity:0.3;}.cls-14,.cls-3{fill:#fff;}.cls-12,.cls-13,.cls-4{fill:none;}.cls-4{stroke:#000;stroke-dasharray:4.04 4.04;}.cls-12,.cls-13,.cls-14,.cls-4{stroke-miterlimit:10;}.cls-10,.cls-11,.cls-5{opacity:0.2;}.cls-15,.cls-6{fill:#52306c;}.cls-7{fill:#834fab;}.cls-8{fill:#a47cce;}.cls-9{opacity:0.4;}.cls-10{fill:#481689;}.cls-10,.cls-11,.cls-15{isolation:isolate;}.cls-11{fill:#f5ccff;}.cls-12,.cls-14{stroke:#52306c;}.cls-13{stroke:#efd0f7;stroke-linecap:round;}.cls-13,.cls-14{stroke-width:2px;}.cls-15{opacity:0.05;}</style></defs><title>add-a-service</title><rect class="cls-1" width="380" height="200"/><g class="cls-2"><path class="cls-3" d="M142,132.5a9.5,9.5,0,0,1-9.5,9.5h-44a9.5,9.5,0,0,1-9.5-9.5v-44A9.5,9.5,0,0,1,88.5,79h43.9a9.5,9.5,0,0,1,9.5,9.5v44H142Z"/><path class="cls-4" d="M141.5,132a9.5,9.5,0,0,1-9.5,9.5H88a9.5,9.5,0,0,1-9.5-9.5V88A9.5,9.5,0,0,1,88,78.5h44a9.5,9.5,0,0,1,9.5,9.5v44Z"/></g><g class="cls-2"><path class="cls-3" d="M302,132.5a9.5,9.5,0,0,1-9.5,9.5H248.6a9.5,9.5,0,0,1-9.5-9.5v-44a9.5,9.5,0,0,1,9.5-9.5h43.9a9.5,9.5,0,0,1,9.5,9.5v44Z"/><path class="cls-4" d="M301.5,132a9.5,9.5,0,0,1-9.5,9.5H248a9.5,9.5,0,0,1-9.5-9.5V88a9.5,9.5,0,0,1,9.5-9.5h44a9.5,9.5,0,0,1,9.5,9.5v44Z"/></g><g class="cls-5"><path class="cls-6" d="M222,132.5a9.5,9.5,0,0,1-9.5,9.5H168.6a9.5,9.5,0,0,1-9.5-9.5v-44a9.5,9.5,0,0,1,9.5-9.5h43.9a9.5,9.5,0,0,1,9.5,9.5v44Z"/></g><path class="cls-7" d="M175.6,142a47.18,47.18,0,0,1-13.9-2.4l-24.4-8.4,29.5-68.4L210.9,58l8.6,24.1a27,27,0,0,1,1.7,8.9v41.8c0,4.8-4.1,9.2-8.9,9.2H175.6Z"/><path class="cls-6" d="M210.1,59.1l8.3,23.4A24.65,24.65,0,0,1,220,91v41.8c0,4.3-3.7,8.2-7.9,8.2H175.6a45.24,45.24,0,0,1-13.6-2.4l-23.4-8.1,28.8-66.8,42.7-4.6m1.4-2.2L166,61.8l-30.1,69.8,25.5,8.9a46.12,46.12,0,0,0,14.2,2.5h36.5c5.3,0,9.9-4.8,9.9-10.2V91a29.32,29.32,0,0,0-1.7-9.2l-8.8-24.9h0Z"/><path class="cls-8" d="M211,120a11,11,0,0,1-11,11H140a11,11,0,0,1-11-11V60a11,11,0,0,1,11-11h60a11,11,0,0,1,11,11v60Z"/><path class="cls-6" d="M200,50a10,10,0,0,1,10,10v60a10.2,10.2,0,0,1-10.2,10H140.2A10.2,10.2,0,0,1,130,120V60a10.2,10.2,0,0,1,10.2-10H200m-0.2-2H140.2A12.21,12.21,0,0,0,128,60v60a12.21,12.21,0,0,0,12.2,12h59.6A12.21,12.21,0,0,0,212,120V60a12.12,12.12,0,0,0-12.1-12h-0.1Z"/><g class="cls-9"><path class="cls-10" d="M170,90h40V60a10.2,10.2,0,0,0-10.2-10H170V90Z"/><rect class="cls-11" x="150" y="70" width="40" height="40"/><path class="cls-11" d="M170,130H140.2A10.46,10.46,0,0,1,130,119.7V90h40v40Z"/><rect class="cls-11" x="150" y="50" width="19" height="60"/></g><circle class="cls-6" cx="169.5" cy="90" r="5.4"/><circle class="cls-6" cx="189.8" cy="90" r="5.4"/><circle class="cls-6" cx="150.1" cy="90" r="5.4"/><line class="cls-12" x1="150.5" y1="130" x2="150.5" y2="50"/><line class="cls-12" x1="189.5" y1="50" x2="189.5" y2="130"/><line class="cls-12" x1="130" y1="70.5" x2="210" y2="70.5"/><line class="cls-12" x1="169.5" y1="130" x2="169.5" y2="50"/><line class="cls-12" x1="130" y1="90.5" x2="211" y2="90.5"/><line class="cls-12" x1="210" y1="110.5" x2="130" y2="110.5"/><line class="cls-13" x1="134" y1="79" x2="134" y2="73"/><path class="cls-13" d="M134,67V62.7a7.7,7.7,0,0,1,7.7-7.7H159"/><polygon class="cls-14" points="208.8 147.4 199.1 156.4 199 117.9 226.1 145.2 213.1 145.7 219.3 159.9 215 161.7 208.8 147.4"/><polygon class="cls-15" points="217 160.7 198.6 118 198.8 156.4 208.5 147.4 214.6 161.7 217 160.7"/></svg>

<?xml version="1.0" encoding="utf-8"?>
<!-- Generator: Adobe Illustrator 19.2.1, SVG Export Plug-In . SVG Version: 6.00 Build 0)  -->
<svg version="1.1" id="Layer_1" xmlns="http://www.w3.org/2000/svg" xmlns:xlink="http://www.w3.org/1999/xlink" x="0px" y="0px"
	 viewBox="0 0 380 200" style="enable-background:new 0 0 380 200;" xml:space="preserve">
<style type="text/css">
	.st0{fill:#FAFAFA;}
	.st1{opacity:0.3;}
	.st2{fill:#FFFFFF;}
	.st3{fill:none;stroke:#000000;stroke-miterlimit:10;stroke-dasharray:4.0372,4.0372;}
	.st4{opacity:0.2;}
	.st5{fill:#52306C;}
	.st6{fill:#834FAB;}
	.st7{fill:#A47CCE;}
	.st8{opacity:0.4;}
	.st9{opacity:0.2;fill:#481689;}
	.st10{opacity:0.2;fill:#F5CCFF;}
	.st11{fill:none;stroke:#52306C;stroke-miterlimit:10;}
	.st12{fill:none;stroke:#EFD0F7;stroke-width:2;stroke-linecap:round;stroke-miterlimit:10;}
	.st13{fill:#FFFFFF;stroke:#52306C;stroke-width:2;stroke-miterlimit:10;}
	.st14{opacity:5.000000e-02;fill:#52306C;enable-background:new    ;}
</style>
<title>runnable-art</title>
<rect class="st0" width="380" height="200"/>
<g class="st1">
	<path class="st2" d="M142,132.5c0,5.3-4.3,9.5-9.5,9.5H88.5c-5.3,0-9.5-4.3-9.5-9.5V88.5c0-5.3,4.3-9.5,9.5-9.5h43.9
		c5.3,0,9.5,4.3,9.5,9.5V132.5z"/>
	<path class="st3" d="M141.5,132c0,5.3-4.3,9.5-9.5,9.5H88c-5.3,0-9.5-4.3-9.5-9.5V88c0-5.3,4.3-9.5,9.5-9.5H132
		c5.3,0,9.5,4.3,9.5,9.5V132z"/>
</g>
<g class="st1">
	<path class="st2" d="M302,132.5c0,5.3-4.3,9.5-9.5,9.5h-43.9c-5.3,0-9.5-4.3-9.5-9.5V88.5c0-5.3,4.3-9.5,9.5-9.5h43.9
		c5.3,0,9.5,4.3,9.5,9.5V132.5z"/>
	<path class="st3" d="M301.5,132c0,5.3-4.3,9.5-9.5,9.5H248c-5.3,0-9.5-4.3-9.5-9.5V88c0-5.3,4.3-9.5,9.5-9.5H292
		c5.3,0,9.5,4.3,9.5,9.5V132z"/>
</g>
<g class="st4">
	<path class="st5" d="M222,132.5c0,5.3-4.3,9.5-9.5,9.5h-43.9c-5.3,0-9.5-4.3-9.5-9.5V88.5c0-5.3,4.3-9.5,9.5-9.5h43.9
		c5.3,0,9.5,4.3,9.5,9.5V132.5z"/>
</g>
<g>
	<path class="st6" d="M175.6,142c-4.7,0-9.4-1-13.9-2.4l-24.4-8.4l29.5-68.4l44.1-4.8l8.6,24.1c1,2.9,1.7,5.8,1.7,8.9v41.8
		c0,4.8-4.1,9.2-8.9,9.2H175.6z"/>
	<path class="st5" d="M210.1,59.1l8.3,23.4c1,2.7,1.6,5.6,1.6,8.5v41.8c0,4.3-3.7,8.2-7.9,8.2h-36.5c-4.6,0-9.2-1-13.6-2.4
		l-23.4-8.1l28.8-66.8L210.1,59.1 M211.5,56.9L166,61.8l-30.1,69.8l25.5,8.9c4.6,1.5,9.4,2.5,14.2,2.5h36.5c5.3,0,9.9-4.8,9.9-10.2
		V91c0-3.1-0.7-6.2-1.7-9.2L211.5,56.9L211.5,56.9z"/>
</g>
<g>
	<path class="st7" d="M211,120c0,6.1-4.9,11-11,11h-60c-6.1,0-11-4.9-11-11V60c0-6.1,4.9-11,11-11h60c6.1,0,11,4.9,11,11V120z"/>
	<path class="st5" d="M200,50c5.5,0,10,4.5,10,10v60c0,5.5-4.7,10-10.2,10h-59.6c-5.5,0-10.2-4.5-10.2-10V60c0-5.5,4.7-10,10.2-10
		H200 M199.8,48h-59.6c-6.6,0-12.2,5.4-12.2,12v60c0,6.6,5.6,12,12.2,12h59.6c6.6,0,12.2-5.4,12.2-12V60c0-6.6-5.5-12-12.1-12H199.8
		z"/>
</g>
<g class="st8">
	<path class="st9" d="M170,90h40V60c0-5.5-4.7-10-10.2-10H170V90z"/>
	<rect x="150" y="70" class="st10" width="40" height="40"/>
	<path class="st10" d="M170,130h-29.8c-5.5,0-10.2-4.8-10.2-10.3V90h40V130z"/>
	<g>
		<rect x="150" y="50" class="st10" width="19" height="60"/>
	</g>
</g>
<g>
	<circle class="st5" cx="169.5" cy="90" r="5.4"/>
</g>
<g>
	<circle class="st5" cx="189.8" cy="90" r="5.4"/>
</g>
<g>
	<circle class="st5" cx="150.1" cy="90" r="5.4"/>
</g>
<line class="st11" x1="150.5" y1="130" x2="150.5" y2="50"/>
<line class="st11" x1="189.5" y1="50" x2="189.5" y2="130"/>
<line class="st11" x1="130" y1="70.5" x2="210" y2="70.5"/>
<line class="st11" x1="169.5" y1="130" x2="169.5" y2="50"/>
<line class="st11" x1="130" y1="90.5" x2="211" y2="90.5"/>
<line class="st11" x1="210" y1="110.5" x2="130" y2="110.5"/>
<line class="st12" x1="134" y1="79" x2="134" y2="73"/>
<path class="st12" d="M134,67v-4.3c0-4.2,3.4-7.7,7.7-7.7H159"/>
<polygon class="st13" points="208.8,147.4 199.1,156.4 199,117.9 226.1,145.2 213.1,145.7 219.3,159.9 215,161.7 "/>
<polygon class="st14" points="217,160.7 198.6,118 198.8,156.4 208.5,147.4 214.6,161.7 "/>
</svg>
